docs/img/common/trash.svg

<svg width="24" height="24" viewBox="0 0 24 24" fill="none" xmlns="http://www.w3.org/2000/svg">
<path fill-rule="evenodd" clip-rule="evenodd" d="M9 1H15C16.1046 1 17 1.89543 17 3V4H20C21.1046 4 22 4.89543 22 6V8C22 9.10457 21.1046 10 20 10H19.9199L19 21C19 22.1046 18.1046 23 17 23H7C5.89543 23 5 22.1046 5.00345 21.083L4.07987 10H4C2.89543 10 2 9.10457 2 8V6C2 4.89543 2.89543 4 4 4H7V3C7 1.89543 7.89543 1 9 1ZM4 6H7H17H20V8H4V6ZM6.08649 10H17.9132L17.0035 20.917L17 21H7L6.08649 10ZM15 3V4H9V3H15Z" fill="black" fill-opacity="0.32"/>
</svg>

<svg width="24" height="24" fill="none" xmlns="http://www.w3.org/2000/svg"><path fill-rule="evenodd" clip-rule="evenodd" d="M9 1h6a2 2 0 0 1 2 2v1h3a2 2 0 0 1 2 2v2a2 2 0 0 1-2 2h-.08L19 21a2 2 0 0 1-2 2H7c-1.105 0-2-.895-1.997-1.917L4.08 10H4a2 2 0 0 1-2-2V6a2 2 0 0 1 2-2h3V3a2 2 0 0 1 2-2zM4 6h16v2H4V6zm2.086 4h11.827l-.91 10.917L17 21H7l-.914-11zM15 3v1H9V3h6z" fill="#000" fill-opacity=".32"/></svg>
